X:15612
T:Slow Air,A,(Melody). BC.52a
M:C|
L:1/8
Q:80
S:Benjamin Cooke MS.circa 1770, F.Kidson Coll.
R:Air
O:England
A:x
Z:John Bagnall
K:D
de | f2 f2 f2 ed | abag f2 d'2 | a2 b2 abag | f6 |!|
fg | a2 a2 e2 ef | g2 g2 d2 de | f2 f2 gfed | edef e2 fg |! a2 a2 e2 ef
|
 g2 g2 d2 de | f2 gf "tr"e3 d | d6 |]
